svgs/aurora_store.svg

<svg width="192" height="192" viewBox="0 0 192 192" fill="none" xmlns="http://www.w3.org/2000/svg">
<path d="M60 78H29.7812C24.7254 78 20.9373 82.6315 21.9402 87.5869L35.7021 155.587C36.4572 159.318 39.7366 162 43.5431 162H148.457C152.263 162 155.543 159.318 156.298 155.587L170.06 87.5869C171.063 82.6315 167.275 78 162.219 78H129.5M60 78H96H129.5M60 78L89.0631 33.5981C92.2828 28.6791 99.5308 28.7968 102.589 33.8178L129.5 78" stroke="black" stroke-width="12" stroke-linecap="round" stroke-linejoin="round"/>
<path d="M73 138L96 102L119 138H73Z" stroke="black" stroke-width="12" stroke-linecap="round" stroke-linejoin="round"/>
</svg>

<svg width="192" height="192" fill="none" xmlns="http://www.w3.org/2000/svg"><path d="M60 78H29.781c-5.056 0-8.844 4.632-7.84 9.587l13.761 68A8 8 0 0 0 43.543 162h104.914a8 8 0 0 0 7.841-6.413l13.762-68c1.003-4.956-2.785-9.587-7.841-9.587H129.5M60 78h69.5M60 78l29.063-44.402c3.22-4.919 10.468-4.801 13.526.22L129.5 78" stroke="#000" stroke-width="12" stroke-linecap="round" stroke-linejoin="round"/><path d="m73 138 23-36 23 36H73z" stroke="#000" stroke-width="12" stroke-linecap="round" stroke-linejoin="round"/></svg>
